; generated by PrusaSlicer 2.3.0+win64 on 2022-02-15 at 09:57:09 UTC


;
;

;
;
; 

; external perimeters extrusion width = 0.45mm
; perimeters extrusion width = 0.45mm
; infill extrusion width = 0.45mm
; solid infill extrusion width = 0.45mm
; top infill extrusion width = 0.40mm
; first layer extrusion width = 0.42mm

M73 P0 R211
M201 X1250 Y1250 Z400 E5000 ; sets maximum accelerations, mm/sec^2
M203 X180 Y180 Z12 E80 ; sets maximum feedrates, mm/sec
M204 P1250 R1250 T1250 ; sets acceleration (P, T) and retract acceleration (R), mm/sec^2
M205 X8.00 Y8.00 Z2.00 E10.00 ; sets the jerk limits, mm/sec
M205 S0 T0 ; sets the minimum extruding and travel feed rate, mm/sec
M107
;TYPE:Custom
G90 ; use absolute coordinates
M83 ; extruder relative mode
M104 S170 ; set extruder temp for bed leveling
M140 S60 ; set bed temp
M109 R170 ; wait for bed leveling temp
M190 S60 ; wait for bed temp
G28 ; home all without mesh bed level
G29 ; mesh bed leveling 
M104 S215 ; set extruder temp
G92 E0.0
G1 Y-2.0 X179 F2400
G1 Z3 F720
M109 S215 ; wait for extruder temp

; intro line
G1 X170 F1000
G1 Z0.2 F720
G1 X110.0 E8.0 F900
M73 P0 R210
G1 X40.0 E10.0 F700
G92 E0.0

M221 S95 ; set flow
G21 ; set units to millimeters
G90 ; use absolute coordinates
M83 ; use relative distances for extrusion
M900 K0.2 ; Filament gcode LA 1.5
; ; Filament gcode LA 1.0
;LAYER_CHANGE
;Z:0.2
;HEIGHT:0.2
;BEFORE_LAYER_CHANGE
G92 E0.0
;0.2


G1 E-3.20000 F4200.000
G1 Z0.200 F9000.000
;AFTER_LAYER_CHANGE
;0.2
G1 Z0.400
G1 X22.725 Y40.553
G1 Z0.200
G1 E3.20000 F2400.000
M204 S800
;TYPE:Skirt
;WIDTH:0.42
G1 F1200.000
G1 X23.434 Y40.424 E0.02260
G1 X91.467 Y38.923 E2.13363
G1 X156.504 Y38.923 E2.03920
G1 X157.406 Y39.102 E0.02884
G1 X158.170 Y39.608 E0.02872
G1 X158.687 Y40.369 E0.02884
G1 X158.877 Y41.268 E0.02884
G1 X158.877 Y138.723 E3.05561
G1 X158.809 Y139.266 E0.01716
G1 X158.616 Y139.782 E0.01728
G1 X158.313 Y140.238 E0.01716
G1 X157.913 Y140.611 E0.01716
G1 X157.250 Y140.956 E0.02343
G1 X156.516 Y141.077 E0.02331
G1 X91.466 Y141.077 E2.03962
G1 X23.417 Y139.576 E2.13414
G1 X22.891 Y139.498 E0.01669
G1 X22.391 Y139.303 E0.01680
G1 X21.951 Y139.003 E0.01668
G1 X21.589 Y138.614 E0.01668
G1 X21.245 Y137.951 E0.02343
G1 X21.123 Y137.210 E0.02355
G1 X21.123 Y42.789 E2.96050
G1 X21.189 Y42.242 E0.01728
G1 X21.380 Y41.725 E0.01728
G1 X21.685 Y41.265 E0.01728
G1 X22.087 Y40.889 E0.01728
G1 X22.672 Y40.581 E0.02072
M204 S1250
; printing object Sensor_DHT_Light.stl_2 id:1 copy 0
G1 E-2.24000 F4200.000
;WIPE_START
G1 F7200.000
G1 X23.434 Y40.424 E-0.43135
G1 X24.301 Y40.405 E-0.48065
;WIPE_END
G1 E-0.04800 F4200.000
G1 Z0.400 F9000.000
G1 X100.588 Y106.166
G1 Z0.200
G1 E3.20000 F2400.000
M204 S800
;TYPE:Perimeter
G1 F1200.000
G1 X100.876 Y105.932 E0.01166
G1 X101.192 Y105.560 E0.01529
G1 X101.657 Y104.909 E0.02510
G1 X101.854 Y104.695 E0.00911
G1 X101.932 Y104.646 E0.00287
G1 X102.015 Y104.629 E0.00267
G1 X102.210 Y104.644 E0.00611
G1 X102.218 Y104.735 E0.00287
G1 X102.197 Y104.898 E0.00518
G1 X102.060 Y105.280 E0.01272
G1 X101.876 Y105.581 E0.01106
G1 X101.778 Y106.042 E0.01476
G1 X101.857 Y106.203 E0.00564
G1 X101.426 Y106.173 E0.01355
G1 X100.648 Y106.167 E0.02439
M204 S1250
G1 E-2.24000 F4200.000
;WIPE_START
G1 F7200.000
G1 X100.876 Y105.932 E-0.18177
G1 X101.192 Y105.560 E-0.27016
G1 X101.657 Y104.909 E-0.44363
G1 X101.678 Y104.887 E-0.01644
;WIPE_END
G1 E-0.04800 F4200.000
G1 Z0.400 F9000.000
G1 X98.915 Y104.416
G1 Z0.200
G1 E3.20000 F2400.000
M204 S800
G1 F1200.000
G1 X98.806 Y104.429 E0.00345
G1 X98.842 Y104.277 E0.00488
G1 X98.994 Y104.013 E0.00957
G1 X99.616 Y103.084 E0.03505
G1 X100.014 Y103.105 E0.01247
G1 X99.813 Y103.283 E0.00840
G1 X99.516 Y103.657 E0.01497
G1 X99.103 Y104.251 E0.02268
G1 X98.965 Y104.383 E0.00598
M204 S1250
G1 E-2.24000 F4200.000
;WIPE_START
G1 F7200.000
G1 X98.806 Y104.429 E-0.09177
G1 X98.842 Y104.277 E-0.08623
G1 X98.994 Y104.013 E-0.16917
G1 X99.561 Y103.166 E-0.56483
;WIPE_END
G1 E-0.04800 F4200.000
G1 Z0.400 F9000.000
G1 X101.443 Y111.041
G1 Z0.200
G1 E3.20000 F2400.000
M204 S800
G1 F1200.000
G1 X101.865 Y111.060 E0.01324
G1 X101.593 Y111.578 E0.01835
G1 X102.054 Y112.287 E0.02651
G1 X102.120 Y112.454 E0.00562
G1 X102.176 Y112.755 E0.00960
G1 X102.155 Y112.875 E0.00382
G1 X102.034 Y112.984 E0.00511
G1 X101.776 Y113.083 E0.00867
G1 X101.518 Y113.131 E0.00823
G1 X101.515 Y112.204 E0.02906
G1 X101.447 Y111.101 E0.03468
M204 S1250
G1 E-2.24000 F4200.000
;WIPE_START
G1 F7200.000
G1 X101.865 Y111.060 E-0.23285
G1 X101.593 Y111.578 E-0.32430
G1 X101.942 Y112.115 E-0.35485
;WIPE_END
G1 E-0.04800 F4200.000
G1 Z0.400 F9000.000
G1 X100.014 Y115.469
G1 Z0.200
G1 E3.20000 F2400.000
M204 S800
G1 F1200.000
G1 X99.814 Y115.646 E0.00840
G1 X99.516 Y116.021 E0.01499
G1 X99.103 Y116.616 E0.02272
G1 X99.010 Y116.717 E0.00430
G1 X98.916 Y116.780 E0.00356
G1 X98.806 Y116.793 E0.00345
G1 X98.842 Y116.642 E0.00487
G1 X98.993 Y116.378 E0.00954
G1 X99.620 Y115.443 E0.03528
G1 X99.954 Y115.465 E0.01050
M204 S1250
G1 E-2.24000 F4200.000
;WIPE_START
G1 F7200.000
G1 X99.814 Y115.646 E-0.12720
G1 X99.516 Y116.021 E-0.26501
G1 X99.103 Y116.616 E-0.40160
G1 X99.010 Y116.717 E-0.07596
G1 X98.947 Y116.760 E-0.04223
;WIPE_END
G1 E-0.04800 F4200.000
G1 Z0.400 F9000.000
G1 X96.552 Y94.433
G1 Z0.200
G1 E3.20000 F2400.000
M204 S800
G1 F1200.000
G1 X99.133 Y94.674 E0.08127
G1 X98.884 Y95.763 E0.03503
G1 X99.031 Y95.875 E0.00582
G1 X99.338 Y95.990 E0.01026
G1 X99.507 Y96.030 E0.00546
G1 X99.990 Y96.090 E0.01525
G1 X100.258 Y96.098 E0.00842
G1 X104.572 Y96.098 E0.13526
G1 X104.572 Y98.368 E0.07116
G1 X103.148 Y98.366 E0.04464
G1 X103.409 Y98.490 E0.00905
G1 X103.768 Y98.721 E0.01338
G1 X104.082 Y98.998 E0.01313
G1 X104.349 Y99.327 E0.01329
G1 X104.546 Y99.704 E0.01334
G1 X104.661 Y100.108 E0.01318
G1 X104.700 Y100.532 E0.01334
G1 X104.660 Y100.937 E0.01276
G1 X104.541 Y101.327 E0.01278
G1 X104.344 Y101.694 E0.01306
G1 X104.077 Y102.017 E0.01314
G1 X103.760 Y102.290 E0.01311
G1 X103.391 Y102.521 E0.01365
G1 X103.246 Y102.581 E0.00493
G1 X103.664 Y102.769 E0.01438
G1 X103.945 Y102.972 E0.01086
G1 X104.183 Y103.212 E0.01059
G1 X104.376 Y103.486 E0.01052
G1 X104.515 Y103.775 E0.01005
G1 X104.618 Y104.078 E0.01002
G1 X104.678 Y104.402 E0.01032
G1 X104.697 Y104.730 E0.01032
G1 X104.680 Y105.079 E0.01097
G1 X104.626 Y105.414 E0.01064
G1 X104.520 Y105.753 E0.01113
G1 X104.228 Y106.241 E0.01781
G1 X104.407 Y106.234 E0.00563
G1 X104.539 Y107.249 E0.03210
G1 X104.589 Y108.427 E0.03697
G1 X99.578 Y108.437 E0.15712
G1 X99.170 Y108.456 E0.01279
G1 X98.903 Y108.503 E0.00851
G1 X98.811 Y108.537 E0.00308
G1 X98.933 Y108.619 E0.00463
G1 X99.063 Y108.665 E0.00433
G1 X99.234 Y108.707 E0.00551
G1 X99.742 Y108.772 E0.01606
G1 X100.400 Y108.795 E0.02064
G1 X104.572 Y108.795 E0.13081
G1 X104.572 Y111.065 E0.07117
G1 X104.107 Y111.064 E0.01458
G1 X104.288 Y111.324 E0.00994
G1 X104.502 Y111.736 E0.01455
G1 X104.632 Y112.172 E0.01426
G1 X104.681 Y112.488 E0.01003
G1 X104.698 Y112.834 E0.01088
G1 X104.661 Y113.233 E0.01254
G1 X104.546 Y113.636 E0.01315
G1 X104.356 Y114.005 E0.01304
G1 X104.103 Y114.336 E0.01305
G1 X103.791 Y114.625 E0.01334
G1 X103.425 Y114.865 E0.01371
G1 X103.243 Y114.946 E0.00624
G1 X103.664 Y115.133 E0.01442
G1 X103.946 Y115.336 E0.01092
G1 X104.183 Y115.577 E0.01058
G1 X104.376 Y115.849 E0.01046
G1 X104.515 Y116.139 E0.01008
G1 X104.618 Y116.442 E0.01002
G1 X104.678 Y116.765 E0.01032
G1 X104.697 Y117.093 E0.01028
G1 X104.682 Y117.439 E0.01087
G1 X104.634 Y117.766 E0.01035
G1 X104.549 Y118.071 E0.00992
G1 X104.432 Y118.357 E0.00970
G1 X104.271 Y118.631 E0.00995
G1 X103.871 Y119.128 E0.02002
G1 X102.004 Y119.128 E0.05854
G1 X101.582 Y118.258 E0.03030
G1 X102.064 Y117.582 E0.02604
G1 X102.199 Y117.258 E0.01099
G1 X102.215 Y117.170 E0.00280
G1 X102.206 Y117.006 E0.00515
G1 X102.192 Y117.002 E0.00046
G1 X101.941 Y117.003 E0.00788
G1 X101.796 Y117.112 E0.00568
G1 X101.661 Y117.268 E0.00646
G1 X101.051 Y118.106 E0.03252
G1 X100.692 Y118.467 E0.01595
G1 X100.257 Y118.762 E0.01648
G1 X99.739 Y118.963 E0.01743
G1 X99.158 Y119.057 E0.01845
G1 X98.515 Y119.054 E0.02017
G1 X98.174 Y119.008 E0.01076
G1 X97.854 Y118.928 E0.01036
G1 X97.555 Y118.811 E0.01008
G1 X97.280 Y118.661 E0.00981
G1 X97.029 Y118.474 E0.00982
G1 X96.812 Y118.255 E0.00967
G1 X96.630 Y118.006 E0.00967
G1 X96.487 Y117.731 E0.00971
G1 X96.385 Y117.435 E0.00981
G1 X96.327 Y117.131 E0.00970
G1 X96.308 Y116.821 E0.00974
G1 X96.330 Y116.480 E0.01071
G1 X96.394 Y116.147 E0.01063
G1 X96.502 Y115.833 E0.01041
G1 X96.752 Y115.341 E0.01730
G1 X97.213 Y114.653 E0.02597
G1 X96.964 Y114.451 E0.01005
G1 X96.697 Y114.143 E0.01278
G1 X96.484 Y113.790 E0.01294
G1 X96.351 Y113.391 E0.01318
G1 X96.306 Y112.975 E0.01312
G1 X96.347 Y112.567 E0.01287
G1 X96.471 Y112.180 E0.01275
G1 X96.672 Y111.834 E0.01255
G1 X96.921 Y111.540 E0.01206
G1 X97.214 Y111.293 E0.01202
G1 X97.631 Y111.046 E0.01519
G1 X96.408 Y111.008 E0.03835
G1 X96.513 Y109.847 E0.03654
G1 X96.763 Y109.274 E0.01962
G1 X96.587 Y109.100 E0.00775
G1 X96.461 Y108.839 E0.00908
G1 X96.343 Y108.412 E0.01391
G1 X96.399 Y107.704 E0.02226
G1 X96.726 Y107.082 E0.02205
G1 X97.253 Y106.628 E0.02180
G1 X97.634 Y106.472 E0.01291
G1 X97.285 Y106.297 E0.01223
G1 X97.031 Y106.111 E0.00989
G1 X96.812 Y105.890 E0.00975
G1 X96.630 Y105.643 E0.00962
G1 X96.487 Y105.367 E0.00975
G1 X96.385 Y105.071 E0.00981
G1 X96.327 Y104.767 E0.00970
G1 X96.308 Y104.457 E0.00974
G1 X96.330 Y104.116 E0.01071
G1 X96.394 Y103.783 E0.01063
G1 X96.502 Y103.469 E0.01041
G1 X96.752 Y102.977 E0.01730
G1 X97.215 Y102.287 E0.02605
G1 X96.924 Y102.031 E0.01213
G1 X96.667 Y101.704 E0.01306
G1 X96.468 Y101.337 E0.01309
G1 X96.347 Y100.927 E0.01339
G1 X96.306 Y100.498 E0.01351
G1 X96.348 Y100.087 E0.01295
G1 X96.473 Y99.692 E0.01299
G1 X96.673 Y99.335 E0.01282
G1 X96.929 Y99.018 E0.01276
G1 X97.246 Y98.742 E0.01320
G1 X97.603 Y98.513 E0.01332
G1 X97.913 Y98.363 E0.01078
G1 X96.413 Y98.305 E0.04707
G1 X96.504 Y97.146 E0.03644
G1 X96.765 Y96.583 E0.01946
G1 X96.588 Y96.428 E0.00736
G1 X96.442 Y96.134 E0.01029
G1 X96.368 Y95.864 E0.00876
G1 X96.349 Y95.479 E0.01208
G1 X96.378 Y95.193 E0.00904
G1 X96.539 Y94.492 E0.02255
M204 S1250
G1 E-2.24000 F4200.000
;WIPE_START
G1 F7200.000
G1 X98.180 Y94.607 E-0.91200
;WIPE_END
G1 E-0.04800 F4200.000
G1 Z0.400 F9000.000
G1 X98.140 Y98.672
G1 Z0.200
G1 E3.20000 F2400.000
M204 S800
;TYPE:External perimeter
G1 F1200.000
G1 X98.532 Y98.533 E0.01307
G1 X98.965 Y98.427 E0.01398
G1 X99.445 Y98.356 E0.01520
G1 X100.067 Y98.326 E0.01953
G1 X101.035 Y98.327 E0.03036
G1 X101.547 Y98.352 E0.01606
G1 X102.026 Y98.414 E0.01514
G1 X102.469 Y98.516 E0.01426
G1 X102.869 Y98.651 E0.01323
G1 X103.226 Y98.820 E0.01238
G1 X103.540 Y99.023 E0.01173
G1 X103.810 Y99.260 E0.01126
G1 X104.033 Y99.535 E0.01110
G1 X104.194 Y99.844 E0.01094
G1 X104.289 Y100.178 E0.01086
G1 X104.321 Y100.531 E0.01111
G1 X104.288 Y100.863 E0.01048
G1 X104.192 Y101.182 E0.01044
G1 X104.030 Y101.483 E0.01071
G1 X103.807 Y101.752 E0.01097
G1 X103.536 Y101.986 E0.01120
G1 X103.217 Y102.184 E0.01179
G1 X102.845 Y102.340 E0.01266
G1 X102.426 Y102.430 E0.01343
G1 X101.540 Y102.534 E0.02795
G1 X100.520 Y102.697 E0.03240
G1 X99.958 Y102.730 E0.01765
G1 X99.443 Y102.694 E0.01619
G1 X98.966 Y102.621 E0.01513
G1 X98.534 Y102.513 E0.01395
G1 X98.143 Y102.378 E0.01297
G1 X97.790 Y102.212 E0.01223
G1 X97.473 Y102.011 E0.01178
G1 X97.199 Y101.771 E0.01142
G1 X96.983 Y101.496 E0.01096
G1 X96.818 Y101.192 E0.01085
G1 X96.719 Y100.855 E0.01100
G1 X96.685 Y100.499 E0.01120
G1 X96.719 Y100.164 E0.01058
G1 X96.821 Y99.842 E0.01056
G1 X96.986 Y99.547 E0.01060
G1 X97.201 Y99.281 E0.01074
G1 X97.472 Y99.044 E0.01128
G1 X97.788 Y98.842 E0.01173
G1 X98.086 Y98.698 E0.01038
M204 S1250
G1 X98.190 Y98.276 F9000.000
G1 E-2.24000 F4200.000
;WIPE_START
G1 F7200.000
G1 X98.532 Y98.533 E-0.26401
G1 X98.965 Y98.427 E-0.24701
G1 X99.445 Y98.356 E-0.26867
G1 X99.683 Y98.344 E-0.13231
;WIPE_END
G1 E-0.04800 F4200.000
G1 Z0.400 F9000.000
G1 X96.846 Y94.839
G1 Z0.200
G1 E3.20000 F2400.000
M204 S800
G1 F1200.000
G1 X98.669 Y95.009 E0.05742
G1 X98.491 Y95.788 E0.02506
G1 X98.538 Y95.936 E0.00486
G1 X98.566 Y95.986 E0.00179
G1 X98.748 Y96.146 E0.00760
G1 X98.867 Y96.217 E0.00435
G1 X99.228 Y96.352 E0.01207
G1 X99.441 Y96.402 E0.00685
G1 X99.961 Y96.467 E0.01644
G1 X100.253 Y96.475 E0.00915
G1 X104.195 Y96.475 E0.12360
G1 X104.195 Y97.990 E0.04751
G1 X102.374 Y97.989 E0.05710
G1 X100.499 Y97.943 E0.05882
G1 X98.623 Y97.989 E0.05883
G1 X97.676 Y97.985 E0.02967
G1 X96.819 Y97.946 E0.02689
G1 X96.875 Y97.243 E0.02211
G1 X97.073 Y96.813 E0.01485
G1 X97.629 Y96.774 E0.01748
G1 X97.374 Y96.616 E0.00942
G1 X96.893 Y96.193 E0.02009
G1 X96.796 Y95.999 E0.00680
G1 X96.743 Y95.804 E0.00633
G1 X96.727 Y95.489 E0.00990
G1 X96.751 Y95.254 E0.00742
G1 X96.832 Y94.898 E0.01145
M204 S1250
G1 X96.895 Y94.442 F9000.000
G1 E-2.24000 F4200.000
;WIPE_START
G1 F7200.000
G1 X98.475 Y94.997 E-0.91200
;WIPE_END
G1 E-0.04800 F4200.000
G1 Z0.400 F9000.000
G1 X97.379 Y102.719
G1 Z0.200
G1 E3.20000 F2400.000
M204 S800
G1 F1200.000
G1 X99.098 Y103.181 E0.05580
G1 X98.673 Y103.813 E0.02389
G1 X98.501 Y104.113 E0.01083
G1 X98.456 Y104.227 E0.00383
G1 X98.418 Y104.466 E0.00761
G1 X98.432 Y104.608 E0.00445
G1 X98.461 Y104.688 E0.00269
G1 X98.543 Y104.766 E0.00357
G1 X98.630 Y104.795 E0.00286
G1 X98.781 Y104.809 E0.00475
G1 X98.961 Y104.795 E0.00567
G1 X99.076 Y104.763 E0.00374
G1 X99.257 Y104.640 E0.00684
G1 X99.398 Y104.488 E0.00651
G1 X99.819 Y103.882 E0.02313
G1 X100.088 Y103.543 E0.01356
G1 X100.418 Y103.251 E0.01384
G1 X100.626 Y103.136 E0.00743
G1 X100.834 Y103.052 E0.00705
G1 X101.252 Y102.956 E0.01343
G1 X101.709 Y102.890 E0.01449
G1 X102.297 Y102.838 E0.01852
G1 X102.617 Y102.834 E0.01002
G1 X102.931 Y102.874 E0.00994
G1 X103.214 Y102.968 E0.00935
G1 X103.469 Y103.094 E0.00892
G1 X103.699 Y103.259 E0.00889
G1 X103.893 Y103.455 E0.00862
G1 X104.050 Y103.678 E0.00856
G1 X104.165 Y103.918 E0.00835
G1 X104.252 Y104.173 E0.00846
G1 X104.303 Y104.447 E0.00874
G1 X104.319 Y104.732 E0.00893
G1 X104.304 Y105.040 E0.00967
G1 X104.258 Y105.328 E0.00914
G1 X104.173 Y105.598 E0.00888
G1 X103.905 Y106.045 E0.01636
G1 X103.607 Y106.274 E0.01178
G1 X102.311 Y106.274 E0.04064
G1 X102.174 Y105.993 E0.00981
G1 X102.232 Y105.723 E0.00867
G1 X102.402 Y105.444 E0.01025
G1 X102.566 Y104.987 E0.01520
G1 X102.598 Y104.741 E0.00777
G1 X102.579 Y104.538 E0.00640
G1 X102.534 Y104.418 E0.00400
G1 X102.465 Y104.333 E0.00345
G1 X102.264 Y104.263 E0.00665
G1 X101.986 Y104.251 E0.00874
G1 X101.790 Y104.291 E0.00628
G1 X101.611 Y104.402 E0.00660
G1 X101.364 Y104.670 E0.01143
G1 X100.894 Y105.328 E0.02534
G1 X100.611 Y105.661 E0.01370
G1 X100.271 Y105.938 E0.01376
G1 X100.066 Y106.052 E0.00737
G1 X99.846 Y106.140 E0.00742
G1 X99.609 Y106.196 E0.00765
G1 X99.119 Y106.248 E0.01545
G1 X98.269 Y106.254 E0.02663
G1 X97.980 Y106.195 E0.00925
G1 X97.720 Y106.102 E0.00867
G1 X97.487 Y105.977 E0.00829
G1 X97.278 Y105.824 E0.00811
G1 X97.100 Y105.644 E0.00796
G1 X96.951 Y105.443 E0.00784
G1 X96.834 Y105.218 E0.00794
G1 X96.751 Y104.974 E0.00808
G1 X96.702 Y104.720 E0.00811
G1 X96.686 Y104.457 E0.00827
G1 X96.704 Y104.163 E0.00922
G1 X96.759 Y103.881 E0.00903
G1 X96.850 Y103.617 E0.00876
G1 X97.078 Y103.168 E0.01578
G1 X97.345 Y102.769 E0.01506
M204 S1250
G1 X97.517 Y102.343 F9000.000
G1 E-2.24000 F4200.000
;WIPE_START
G1 F7200.000
G1 X98.947 Y103.145 E-0.91200
;WIPE_END
G1 E-0.04800 F4200.000
G1 Z0.400 F9000.000
G1 X104.077 Y106.623
G1 Z0.200
G1 E3.20000 F2400.000
M204 S800
G1 F1200.000
G1 X104.163 Y107.282 E0.02081
G1 X104.195 Y108.051 E0.02415
G1 X99.569 Y108.060 E0.14507
G1 X99.129 Y108.080 E0.01380
G1 X98.804 Y108.137 E0.01035
G1 X98.586 Y108.218 E0.00728
G1 X98.480 Y108.293 E0.00406
G1 X98.423 Y108.386 E0.00341
G1 X98.395 Y108.488 E0.00334
G1 X98.445 Y108.680 E0.00622
G1 X98.564 Y108.836 E0.00614
G1 X98.785 Y108.967 E0.00805
G1 X99.165 Y109.078 E0.01240
G1 X99.711 Y109.148 E0.01729
G1 X100.393 Y109.172 E0.02139
G1 X104.195 Y109.172 E0.11920
G1 X104.195 Y110.687 E0.04751
G1 X101.902 Y110.684 E0.07189
G1 X100.495 Y110.620 E0.04418
